X:125
T: Pinkie House
N: O'Farrell's Pocket Companion v.2 (Sky ed. p.68)
N: "Scotch"
M: C
L: 1/8
R: hornpipe % strathspey
Q: 200 % "slow"
K: G
GA|B>ABd cBAG|d>Bd>e {e}d2 g>f|e>deg dBAG|A6 G>A|
B>A Bc/d/ cBAG|d>Bde d2 g>f|e>def ga/b/ ag/a/|g4 z2 :|
f>g|a>gfg {g}a2 g>a|ba/g/ fg/f/ edBe/f/|gfga g2 f2|
{f}e6 ef/g/|d<BAG B<de>g|d<BAG E2 b>a|g>f ef/g/ d<B AG/A/|
G6 :|
